svgs/light/sausage.svg

<svg xmlns="http://www.w3.org/2000/svg" viewBox="0 0 512 512"><!-- Font Awesome Pro 6.0.0-alpha2 by @fontawesome - https://fontawesome.com License - https://fontawesome.com/license (Commercial License) --><path d="M416 64C363.066 64 320 107.064 320 160C320 248.225 248.225 320 160 320C107.066 320 64 363.064 64 416C64 468.934 107.066 512 160 512C354.094 512 512 354.094 512 160C512 107.064 468.936 64 416 64ZM160 480C124.625 480 96 451.375 96 416S124.625 352 160 352C265.875 352 352 265.875 352 160C352 124.625 380.625 96 416 96S480 124.625 480 160C480 336.5 336.5 480 160 480ZM400 160C391.125 160 384 167.125 384 176C384 290.75 290.75 384 176 384C167.125 384 160 391.125 160 400S167.125 416 176 416C308.375 416 416 308.375 416 176C416 167.125 408.875 160 400 160ZM400 32H464C472.836 32 480 24.836 480 16C480 7.162 472.836 0 464 0H400C391.164 0 384 7.162 384 16C384 24.836 391.164 32 400 32ZM16 384C7.164 384 0 391.162 0 400V464C0 472.836 7.164 480 16 480S32 472.836 32 464V400C32 391.162 24.836 384 16 384Z"/></svg>

<svg xmlns="http://www.w3.org/2000/svg" viewBox="0 0 512 512"><!--! Font Awesome Pro 6.3.0 by @fontawesome - https://fontawesome.com License - https://fontawesome.com/license (Commercial License) Copyright 2023 Fonticons, Inc. --><path d="M416 63.1C363.1 63.1 320 107.1 320 160c0 88.22-71.78 160-160 160c-52.93 0-96 43.06-96 95.1C63.1 468.9 107 512 159.1 512C354.1 512 512 354.1 512 160C512 107.1 468.1 63.1 416 63.1zM160 480c-35.38 0-64-28.62-64-64s28.62-64 64-64c105.9 0 192-86.13 192-192c0-35.38 28.62-64 64-64s64 28.62 64 64C480 336.5 336.5 480 160 480zM400 160C391.1 160 384 167.1 384 176c0 114.8-93.25 208-208 208C167.1 384 160 391.1 160 400S167.1 416 176 416c132.4 0 240-107.6 240-240C416 167.1 408.9 160 400 160zM400 32h64C472.8 32 480 24.84 480 16C480 7.162 472.8 0 463.1 0H400C391.2 0 384 7.162 384 16C384 24.84 391.2 32 400 32zM16 384C7.164 384 0 391.2 0 400v64C0 472.8 7.164 480 16 480S32 472.8 32 464v-64C32 391.2 24.84 384 16 384z"/></svg>
